;FLAVOR:Marlin(Volumetric)
;TIME:54
;Filament used: 154.947mm3
;Layer height: 0.6
;MINX:40.005
;MINY:40.68
;MINZ:0.3
;MAXX:59.984
;MAXY:59.163
;MAXZ:6.3
;Generated with Cura_SteamEngine 4.11.0
M104 S200
M109 S200
M82 ;absolute extrusion mode

G92 E0
G92 E0
G10
;LAYER_COUNT:11
;LAYER:0
M107
G0 F3600 X42.612 Y43.304 Z0.3
;TYPE:SKIRT
G11
G1 F1800 X43.179 Y42.755 E0.09471
G1 X43.636 Y42.385 E0.16527
G1 X44.289 Y41.94 E0.26009
G1 X44.983 Y41.564 E0.35481
G1 X45.486 Y41.345 E0.42064
G1 X45.788 Y41.226 E0.4596
G1 X46.537 Y40.974 E0.55443
G1 X47.307 Y40.799 E0.64918
G1 X48.031 Y40.707 E0.73676
G1 X48.094 Y40.702 E0.74435
G1 X48.883 Y40.68 E0.83906
G1 X49.671 Y40.737 E0.93387
G1 X49.967 Y40.789 E0.96993
G1 X50.89 Y40.684 E1.08141
G1 X50.939 Y40.682 E1.08729
G1 X51.729 Y40.69 E1.1821
G1 X52.874 Y40.845 E1.32075
G1 X53.143 Y40.902 E1.35375
G1 X53.906 Y41.105 E1.44849
G1 X54.873 Y41.487 E1.57326
G1 X54.913 Y41.506 E1.57857
G1 X55.608 Y41.881 E1.67334
G1 X56.48 Y42.494 E1.80125
G1 X56.766 Y42.726 E1.84544
G1 X57.353 Y43.254 E1.94018
G1 X57.717 Y43.642 E2.00402
G1 X58.21 Y44.259 E2.0988
G1 X58.715 Y45.061 E2.21253
G1 X58.897 Y45.393 E2.25796
G1 X59.321 Y46.3 E2.37811
G1 X59.58 Y47.072 E2.47582
G1 X59.68 Y47.473 E2.52541
G1 X59.798 Y48.004 E2.59069
G1 X59.957 Y49.048 E2.71741
G1 X59.984 Y49.913 E2.82126
G1 X59.971 Y50.438 E2.88428
G1 X59.889 Y51.388 E2.99871
G1 X59.885 Y51.415 E3.00198
G1 X59.67 Y52.411 E3.12425
G1 X59.526 Y52.916 E3.18727
G1 X59.271 Y53.663 E3.28199
G1 X59.002 Y54.265 E3.36111
G1 X58.986 Y54.297 E3.36541
G1 X58.435 Y55.23 E3.49543
G1 X58.219 Y55.544 E3.54117
G1 X57.739 Y56.171 E3.63592
G1 X57.214 Y56.731 E3.72804
G1 X57.184 Y56.76 E3.73304
G1 X56.589 Y57.28 E3.82787
G1 X55.873 Y57.781 E3.93273
G1 X55.594 Y57.954 E3.97213
G1 X54.903 Y58.336 E4.06688
G1 X53.951 Y58.725 E4.19028
G1 X53.903 Y58.741 E4.19636
G1 X53.142 Y58.952 E4.29112
G1 X52.363 Y59.086 E4.38597
G1 X51.739 Y59.135 E4.46108
G1 X51.43 Y59.147 E4.49819
G1 X50.64 Y59.138 E4.593
G1 X49.978 Y59.063 E4.67295
G1 X49.671 Y59.104 E4.71011
G1 X48.883 Y59.163 E4.80494
G1 X48.094 Y59.142 E4.89965
G1 X47.565 Y59.083 E4.96353
G1 X46.789 Y58.934 E5.05835
G1 X45.71 Y58.584 E5.19447
G1 X45.395 Y58.456 E5.23527
G1 X44.679 Y58.122 E5.33008
G1 X43.782 Y57.566 E5.45672
G1 X43.743 Y57.538 E5.46248
G1 X43.126 Y57.046 E5.55718
G1 X42.323 Y56.223 E5.69516
G1 X42.069 Y55.921 E5.74251
G1 X41.592 Y55.291 E5.83734
G1 X41.25 Y54.742 E5.91496
G1 X40.893 Y54.037 E6.00978
G1 X40.691 Y53.536 E6.07461
G1 X40.53 Y53.093 E6.13117
G1 X40.308 Y52.375 E6.22135
G1 X40.147 Y51.602 E6.3161
G1 X40.094 Y51.185 E6.36655
G1 X40.044 Y50.687 E6.42661
G1 X40.005 Y49.885 E6.52296
G1 X40.074 Y48.852 E6.6472
G1 X40.146 Y48.313 E6.71245
G1 X40.276 Y47.595 E6.80001
G1 X40.49 Y46.835 E6.89476
G1 X40.69 Y46.304 E6.96285
G1 X40.863 Y45.892 E7.01647
G1 X41.205 Y45.18 E7.11126
G1 X41.55 Y44.608 E7.19141
G1 X42.015 Y43.971 E7.28605
G1 X42.373 Y43.56 E7.35146
G1 X42.612 Y43.304 E7.39349
G0 F3600 X42.904 Y43.577
G1 F1800 X43.457 Y43.043 E7.48574
G1 X43.877 Y42.704 E7.55051
G1 X44.514 Y42.272 E7.64287
G1 X45.192 Y41.908 E7.73521
G1 X45.935 Y41.598 E7.83182
G1 X46.664 Y41.354 E7.92407
G1 X47.415 Y41.186 E8.01642
G1 X48.063 Y41.106 E8.09477
G1 X48.126 Y41.101 E8.10235
G1 X48.894 Y41.08 E8.19455
G1 X49.661 Y41.139 E8.28686
G1 X49.951 Y41.191 E8.32221
G1 X50.906 Y41.084 E8.43753
G1 X50.955 Y41.082 E8.44341
G1 X51.724 Y41.091 E8.5357
G1 X52.791 Y41.237 E8.66493
G1 X53.06 Y41.294 E8.69793
G1 X53.803 Y41.492 E8.7902
G1 X54.701 Y41.849 E8.90617
G1 X54.741 Y41.868 E8.91148
G1 X55.418 Y42.233 E9.00377
G1 X56.228 Y42.805 E9.12277
G1 X56.514 Y43.037 E9.16696
G1 X57.085 Y43.552 E9.25923
G1 X57.418 Y43.907 E9.31764
G1 X57.897 Y44.509 E9.40996
G1 X58.364 Y45.253 E9.51537
G1 X58.546 Y45.585 E9.5608
G1 X58.948 Y46.445 E9.67472
G1 X58.957 Y46.468 E9.67768
G1 X59.29 Y47.56 E9.81468
G1 X59.408 Y48.091 E9.87996
G1 X59.558 Y49.081 E10.00011
G1 X59.584 Y49.903 E10.0988
G1 X59.571 Y50.428 E10.16182
G1 X59.493 Y51.329 E10.27034
G1 X59.489 Y51.356 E10.27362
G1 X59.285 Y52.301 E10.38963
G1 X59.141 Y52.806 E10.45265
G1 X58.892 Y53.534 E10.54498
G1 X58.628 Y54.118 E10.62188
G1 X58.106 Y55.003 E10.74518
G1 X57.89 Y55.317 E10.79092
G1 X57.422 Y55.927 E10.88318
G1 X56.936 Y56.444 E10.96833
G1 X56.906 Y56.473 E10.97333
G1 X56.326 Y56.978 E11.06562
G1 X55.663 Y57.441 E11.16266
G1 X55.384 Y57.614 E11.20205
G1 X54.71 Y57.985 E11.29437
G1 X53.824 Y58.345 E11.40914
G1 X53.776 Y58.361 E11.41521
G1 X53.035 Y58.566 E11.50747
G1 X52.276 Y58.693 E11.59981
G1 X51.723 Y58.735 E11.66636
G1 X51.414 Y58.747 E11.70347
G1 X50.645 Y58.737 E11.79576
G1 X49.972 Y58.658 E11.87708
G1 X49.621 Y58.707 E11.9196
G1 X48.853 Y58.763 E12.01201
G1 X48.085 Y58.74 E12.10421
G1 X47.62 Y58.687 E12.16037
G1 X46.865 Y58.54 E12.25267
G1 X45.86 Y58.214 E12.37946
G1 X45.545 Y58.086 E12.42026
G1 X44.849 Y57.759 E12.51254
G1 X44.015 Y57.241 E12.63035
G1 X43.976 Y57.213 E12.63611
G1 X43.376 Y56.733 E12.72832
G1 X42.629 Y55.965 E12.85688
G1 X42.375 Y55.663 E12.90424
G1 X41.911 Y55.05 E12.99649
G1 X41.597 Y54.543 E13.06806
G1 X41.251 Y53.857 E13.16025
G1 X40.906 Y52.957 E13.27592
G1 X40.695 Y52.274 E13.3617
G1 X40.492 Y51.145 E13.49935
G1 X40.442 Y50.647 E13.55941
G1 X40.405 Y49.885 E13.65096
G1 X40.47 Y48.905 E13.76882
G1 X40.542 Y48.366 E13.83407
G1 X40.666 Y47.684 E13.91725
G1 X40.875 Y46.944 E14.00953
G1 X41.059 Y46.459 E14.07178
G1 X41.232 Y46.047 E14.1254
G1 X41.566 Y45.354 E14.21771
G1 X41.884 Y44.828 E14.29147
G1 X42.339 Y44.207 E14.38385
G1 X42.904 Y43.577 E14.4854
G0 F3600 X43.196 Y43.85
G1 F1800 X43.735 Y43.331 E14.57519
G1 X44.119 Y43.022 E14.63434
G1 X44.739 Y42.603 E14.72413
G1 X45.399 Y42.252 E14.81384
G1 X46.082 Y41.97 E14.90251
G1 X46.791 Y41.734 E14.99218
G1 X47.522 Y41.574 E15.08198
G1 X48.094 Y41.505 E15.15111
G1 X48.157 Y41.5 E15.1587
G1 X48.905 Y41.481 E15.24849
G1 X49.651 Y41.541 E15.3383
G1 X49.961 Y41.59 E15.37596
G1 X50.923 Y41.484 E15.4921
G1 X50.972 Y41.482 E15.49798
G1 X51.72 Y41.491 E15.58775
G1 X52.708 Y41.628 E15.70744
G1 X52.977 Y41.685 E15.74044
G1 X53.7 Y41.879 E15.83027
G1 X54.529 Y42.21 E15.93738
G1 X54.569 Y42.229 E15.9427
G1 X55.227 Y42.586 E16.03253
G1 X55.976 Y43.116 E16.14264
G1 X56.262 Y43.348 E16.18683
G1 X56.817 Y43.849 E16.27655
G1 X57.118 Y44.172 E16.32953
G1 X57.583 Y44.758 E16.4193
G1 X58.013 Y45.445 E16.51656
G1 X58.195 Y45.777 E16.56199
G1 X58.576 Y46.591 E16.66984
G1 X58.585 Y46.614 E16.67281
G1 X58.899 Y47.646 E16.80225
G1 X59.017 Y48.177 E16.86753
G1 X59.16 Y49.115 E16.98139
G1 X59.184 Y49.893 E17.07479
G1 X59.171 Y50.418 E17.13781
G1 X59.097 Y51.271 E17.24055
G1 X59.093 Y51.298 E17.24383
G1 X58.901 Y52.192 E17.35356
G1 X58.757 Y52.697 E17.41657
G1 X58.513 Y53.404 E17.50632
G1 X58.27 Y53.939 E17.57683
G1 X57.776 Y54.776 E17.69346
G1 X57.56 Y55.09 E17.7392
G1 X57.104 Y55.683 E17.82896
G1 X56.658 Y56.156 E17.90698
G1 X56.628 Y56.185 E17.91198
G1 X56.063 Y56.675 E18.00173
G1 X55.452 Y57.101 E18.09111
G1 X55.173 Y57.274 E18.13051
G1 X54.517 Y57.634 E18.2203
G1 X53.698 Y57.966 E18.32635
G1 X53.65 Y57.982 E18.33242
G1 X52.928 Y58.18 E18.42226
G1 X52.19 Y58.3 E18.51198
G1 X51.399 Y58.348 E18.60708
G1 X50.651 Y58.337 E18.69685
G1 X50.018 Y58.243 E18.77364
G1 X49.571 Y58.31 E18.82788
G1 X48.824 Y58.364 E18.91775
G1 X47.725 Y58.297 E19.04988
G1 X47.675 Y58.29 E19.05594
G1 X46.941 Y58.147 E19.14567
G1 X46.011 Y57.843 E19.26308
G1 X45.696 Y57.715 E19.30388
G1 X45.019 Y57.397 E19.39364
G1 X44.249 Y56.916 E19.50259
G1 X44.21 Y56.888 E19.50835
G1 X43.626 Y56.42 E19.59815
G1 X42.935 Y55.708 E19.71722
G1 X42.681 Y55.406 E19.76457
G1 X42.231 Y54.808 E19.85438
G1 X41.944 Y54.345 E19.91975
G1 X41.608 Y53.677 E20.00948
G1 X41.282 Y52.82 E20.1195
G1 X41.082 Y52.173 E20.20077
G1 X40.89 Y51.105 E20.33098
G1 X40.84 Y50.607 E20.39104
G1 X40.805 Y49.885 E20.47779
G1 X40.867 Y48.958 E20.58927
G1 X40.939 Y48.419 E20.65453
G1 X41.056 Y47.773 E20.73331
G1 X41.261 Y47.053 E20.82314
G1 X41.601 Y46.202 E20.93311
G1 X41.927 Y45.529 E21.02285
G1 X42.219 Y45.047 E21.09047
G1 X42.662 Y44.444 E21.18026
G1 X43.196 Y43.85 E21.27611
G0 F3600 X43.489 Y44.123
G1 F1800 X44.013 Y43.62 E21.36327
G1 X44.361 Y43.341 E21.4168
G1 X44.963 Y42.935 E21.50393
G1 X45.926 Y42.462 E21.63268
G1 X46.228 Y42.343 E21.67163
G1 X46.918 Y42.114 E21.75887
G1 X47.628 Y41.962 E21.846
G1 X48.126 Y41.904 E21.90617
G1 X48.189 Y41.899 E21.91375
G1 X48.915 Y41.881 E22.0009
G1 X49.639 Y41.944 E22.08811
G1 X49.957 Y42.002 E22.12689
G1 X50.053 Y41.98 E22.13871
G1 X50.939 Y41.883 E22.24567
G1 X50.988 Y41.881 E22.25155
G1 X51.714 Y41.892 E22.33868
G1 X52.625 Y42.019 E22.44906
G1 X52.894 Y42.076 E22.48206
G1 X53.595 Y42.266 E22.56921
G1 X54.358 Y42.571 E22.66782
G1 X54.398 Y42.59 E22.67313
G1 X55.036 Y42.938 E22.76034
G1 X55.724 Y43.426 E22.86156
G1 X56.01 Y43.658 E22.90575
G1 X56.795 Y44.411 E23.03628
G1 X56.818 Y44.437 E23.04045
G1 X57.269 Y45.007 E23.12767
G1 X57.662 Y45.637 E23.21677
G1 X57.844 Y45.969 E23.26221
G1 X58.203 Y46.737 E23.36394
G1 X58.212 Y46.76 E23.3669
G1 X58.509 Y47.733 E23.48898
G1 X58.627 Y48.264 E23.55425
G1 X58.761 Y49.148 E23.66155
G1 X58.784 Y49.883 E23.74979
G1 X58.771 Y50.408 E23.81281
G1 X58.702 Y51.212 E23.90964
G1 X58.698 Y51.239 E23.91292
G1 X58.516 Y52.082 E24.01641
G1 X58.372 Y52.587 E24.07943
G1 X58.135 Y53.273 E24.16652
G1 X57.912 Y53.761 E24.2309
G1 X57.447 Y54.55 E24.3408
G1 X57.231 Y54.864 E24.38654
G1 X56.787 Y55.438 E24.47362
G1 X56.38 Y55.868 E24.54467
G1 X56.35 Y55.897 E24.54968
G1 X55.801 Y56.373 E24.63687
G1 X55.241 Y56.761 E24.71862
G1 X54.962 Y56.934 E24.75802
G1 X54.325 Y57.282 E24.84512
G1 X53.571 Y57.586 E24.94268
G1 X53.523 Y57.602 E24.94875
G1 X52.822 Y57.794 E25.03597
G1 X52.105 Y57.907 E25.12307
G1 X51.383 Y57.948 E25.20985
G1 X50.657 Y57.936 E25.29698
G1 X50.009 Y57.839 E25.37561
G1 X49.521 Y57.913 E25.43484
G1 X48.796 Y57.964 E25.52205
G1 X47.781 Y57.901 E25.64409
G1 X47.731 Y57.894 E25.65015
G1 X47.018 Y57.754 E25.73734
G1 X46.161 Y57.472 E25.8456
G1 X45.846 Y57.344 E25.88641
G1 X45.19 Y57.034 E25.97347
G1 X44.482 Y56.591 E26.07369
G1 X44.443 Y56.563 E26.07945
G1 X43.877 Y56.108 E26.1666
G1 X43.241 Y55.45 E26.27641
G1 X42.987 Y55.148 E26.32377
G1 X42.551 Y54.567 E26.41094
G1 X42.292 Y54.147 E26.47015
G1 X41.966 Y53.497 E26.55741
G1 X41.658 Y52.683 E26.66185
G1 X41.469 Y52.072 E26.7386
G1 X41.288 Y51.065 E26.86137
G1 X41.238 Y50.567 E26.92143
G1 X41.205 Y49.885 E27.00337
G1 X41.263 Y49.011 E27.10848
G1 X41.335 Y48.472 E27.17373
G1 X41.446 Y47.861 E27.24825
G1 X41.646 Y47.163 E27.33538
G1 X41.97 Y46.357 E27.43963
G1 X42.287 Y45.704 E27.52673
G1 X42.553 Y45.266 E27.58823
G1 X42.984 Y44.681 E27.67542
G1 X43.489 Y44.123 E27.76573
G0 F3600 X43.781 Y44.396
G1 F1800 X44.29 Y43.91 E27.85018
G1 X44.602 Y43.66 E27.89816
G1 X45.186 Y43.267 E27.98263
G1 X46.073 Y42.834 E28.10107
G1 X46.375 Y42.715 E28.14003
G1 X47.044 Y42.494 E28.22457
G1 X47.733 Y42.351 E28.30902
G1 X48.22 Y42.297 E28.36781
G1 X48.924 Y42.282 E28.45231
G1 X49.625 Y42.346 E28.53678
G1 X49.969 Y42.411 E28.57879
G1 X50.144 Y42.37 E28.60036
G1 X50.955 Y42.283 E28.69824
G1 X51.004 Y42.281 E28.70412
G1 X51.708 Y42.292 E28.78862
G1 X52.542 Y42.411 E28.88971
G1 X52.811 Y42.468 E28.92271
G1 X53.491 Y42.652 E29.00724
G1 X54.186 Y42.933 E29.0972
G1 X54.226 Y42.952 E29.10251
G1 X54.844 Y43.289 E29.18698
G1 X55.472 Y43.737 E29.27955
G1 X55.758 Y43.969 E29.32374
G1 X56.496 Y44.676 E29.44639
G1 X56.519 Y44.702 E29.45055
G1 X56.955 Y45.255 E29.53506
G1 X57.312 Y45.83 E29.61627
G1 X57.494 Y46.162 E29.66171
G1 X57.831 Y46.883 E29.75721
G1 X57.84 Y46.906 E29.76017
G1 X58.118 Y47.82 E29.87482
G1 X58.236 Y48.351 E29.94009
G1 X58.363 Y49.181 E30.04085
G1 X58.384 Y49.873 E30.12393
G1 X58.371 Y50.398 E30.18695
G1 X58.306 Y51.154 E30.278
G1 X58.302 Y51.181 E30.28128
G1 X58.131 Y51.972 E30.37839
G1 X57.987 Y52.477 E30.44141
G1 X57.756 Y53.142 E30.52588
G1 X57.554 Y53.582 E30.58398
G1 X57.117 Y54.323 E30.68721
G1 X56.901 Y54.637 E30.73295
G1 X56.47 Y55.193 E30.81737
G1 X56.102 Y55.581 E30.88154
G1 X56.072 Y55.61 E30.88654
G1 X55.539 Y56.069 E30.97095
G1 X55.03 Y56.421 E31.04521
G1 X54.751 Y56.594 E31.08461
G1 X54.133 Y56.931 E31.16908
G1 X53.445 Y57.207 E31.25803
G1 X53.397 Y57.223 E31.26411
G1 X52.717 Y57.407 E31.34864
G1 X51.677 Y57.536 E31.4744
G1 X51.368 Y57.548 E31.5115
G1 X50.664 Y57.536 E31.596
G1 X50 Y57.435 E31.67659
G1 X49.471 Y57.516 E31.74081
G1 X48.768 Y57.565 E31.82538
G1 X47.836 Y57.505 E31.93745
G1 X47.786 Y57.498 E31.94351
G1 X47.096 Y57.361 E32.02792
G1 X46.312 Y57.102 E32.127
G1 X45.997 Y56.974 E32.16781
G1 X45.361 Y56.672 E32.25229
G1 X44.715 Y56.266 E32.34385
G1 X44.676 Y56.238 E32.34961
G1 X44.128 Y55.796 E32.4341
G1 X43.547 Y55.193 E32.53458
G1 X43.293 Y54.891 E32.58193
G1 X42.871 Y54.327 E32.66646
G1 X42.639 Y53.948 E32.71979
G1 X42.325 Y53.318 E32.80426
G1 X42.034 Y52.547 E32.90315
G1 X41.856 Y51.971 E32.97549
G1 X41.686 Y51.025 E33.09083
G1 X41.636 Y50.527 E33.15089
G1 X41.605 Y49.885 E33.22802
G1 X41.66 Y49.064 E33.32676
G1 X41.732 Y48.525 E33.39202
G1 X41.836 Y47.95 E33.46214
G1 X42.031 Y47.273 E33.54668
G1 X42.339 Y46.512 E33.64519
G1 X42.647 Y45.879 E33.72967
G1 X42.888 Y45.485 E33.78509
G1 X43.307 Y44.919 E33.8696
G1 X43.781 Y44.396 E33.9543
G0 F3600 X44.073 Y44.669
G1 F1800 X44.811 Y44.004 E34.07351
G1 X44.844 Y43.979 E34.07848
G1 X45.41 Y43.6 E34.16022
G1 X46.22 Y43.206 E34.26831
G1 X46.522 Y43.087 E34.30726
G1 X47.169 Y42.875 E34.38896
G1 X47.836 Y42.74 E34.47062
G1 X48.252 Y42.696 E34.52082
G1 X48.933 Y42.682 E34.60256
G1 X49.611 Y42.748 E34.6843
G1 X49.979 Y42.819 E34.72928
G1 X50.235 Y42.76 E34.7608
G1 X50.971 Y42.683 E34.8496
G1 X51.02 Y42.681 E34.85549
G1 X51.701 Y42.693 E34.93722
G1 X52.459 Y42.802 E35.02912
G1 X52.728 Y42.859 E35.06211
G1 X53.385 Y43.039 E35.14386
G1 X54.015 Y43.294 E35.22542
G1 X54.055 Y43.313 E35.23073
G1 X54.651 Y43.641 E35.31237
G1 X55.22 Y44.048 E35.39632
G1 X55.506 Y44.28 E35.44051
G1 X56.196 Y44.941 E35.55517
G1 X56.219 Y44.967 E35.55934
G1 X56.64 Y45.503 E35.64113
G1 X56.961 Y46.022 E35.71436
G1 X57.143 Y46.354 E35.75979
G1 X57.458 Y47.028 E35.84907
G1 X57.467 Y47.051 E35.85203
G1 X57.728 Y47.907 E35.95942
G1 X57.846 Y48.438 E36.02469
G1 X57.964 Y49.214 E36.11888
G1 X57.984 Y49.864 E36.19692
G1 X57.971 Y50.389 E36.25994
G1 X57.91 Y51.095 E36.34498
G1 X57.906 Y51.122 E36.34825
G1 X57.747 Y51.862 E36.43908
G1 X57.603 Y52.367 E36.50209
G1 X57.378 Y53.01 E36.58384
G1 X57.197 Y53.403 E36.63576
G1 X56.788 Y54.096 E36.73232
G1 X56.572 Y54.41 E36.77806
G1 X56.153 Y54.948 E36.85989
G1 X55.794 Y55.322 E36.9221
G1 X55.278 Y55.766 E37.00379
G1 X54.82 Y56.081 E37.07049
G1 X54.541 Y56.254 E37.10988
G1 X53.942 Y56.579 E37.19166
G1 X53.318 Y56.827 E37.27224
G1 X53.27 Y56.843 E37.27831
G1 X52.613 Y57.02 E37.35996
G1 X51.661 Y57.137 E37.47506
G1 X51.352 Y57.149 E37.51217
G1 X50.671 Y57.135 E37.59391
G1 X49.997 Y57.031 E37.67574
G1 X49.421 Y57.12 E37.74568
G1 X48.741 Y57.165 E37.82746
G1 X47.892 Y57.109 E37.92956
G1 X47.842 Y57.102 E37.93562
G1 X47.174 Y56.968 E38.01738
G1 X46.463 Y56.731 E38.10732
G1 X46.148 Y56.603 E38.14812
G1 X45.533 Y56.31 E38.22986
G1 X44.948 Y55.941 E38.31286
G1 X44.909 Y55.913 E38.31862
G1 X44.381 Y55.485 E38.40019
G1 X43.853 Y54.935 E38.49168
G1 X43.599 Y54.633 E38.53903
G1 X43.192 Y54.087 E38.62075
G1 X42.986 Y53.75 E38.66815
G1 X42.571 Y52.853 E38.78675
G1 X42.41 Y52.41 E38.84331
G1 X42.243 Y51.87 E38.91114
G1 X42.084 Y50.985 E39.01904
G1 X42.034 Y50.487 E39.0791
G1 X42.005 Y49.885 E39.15142
G1 X42.056 Y49.117 E39.24379
G1 X42.128 Y48.578 E39.30904
G1 X42.226 Y48.039 E39.37478
G1 X42.534 Y47.078 E39.49588
G1 X42.707 Y46.666 E39.5495
G1 X43.007 Y46.055 E39.63118
G1 X43.223 Y45.704 E39.68064
G1 X43.834 Y44.925 E39.79944
G1 X44.073 Y44.669 E39.84147
G0 F3600 X44.366 Y44.942
G1 F1800 X45.052 Y44.323 E39.95235
G1 X45.085 Y44.298 E39.95732
G1 X45.632 Y43.934 E40.03616
G1 X46.366 Y43.578 E40.13405
G1 X46.668 Y43.459 E40.17301
G1 X47.293 Y43.256 E40.25186
G1 X48.221 Y43.1 E40.36479
G1 X48.284 Y43.095 E40.37237
G1 X48.941 Y43.083 E40.45122
G1 X49.915 Y43.214 E40.56916
G1 X50.325 Y43.151 E40.61893
G1 X50.988 Y43.082 E40.69892
