;FLAVOR:Marlin
;TIME:67
;Filament used: 0.0242886m, 0.00510839m
;Layer height: 0.6
;MINX:38.405
;MINY:39.079
;MINZ:0.3
;MAXX:61.583
;MAXY:60.76
;MAXZ:6.3
;Generated with Cura_SteamEngine 4.11.0
T0
M104 S200
M104 T1 S175
M105
M109 S200
M105
M109 T1 S175
M82 ;absolute extrusion mode

G92 E0
G92 E0
G1 F1500 E-6.5
;LAYER_COUNT:11
;LAYER:0
M107
M104 T1 S200
G0 F3600 X42.612 Y43.304 Z0.3
;TYPE:SKIRT
G1 F1500 E0
G1 F1800 X43.179 Y42.755 E0.01485
G1 X43.636 Y42.385 E0.02591
G1 X44.289 Y41.94 E0.04077
G1 X44.983 Y41.564 E0.05562
G1 X45.486 Y41.345 E0.06594
G1 X45.788 Y41.226 E0.07204
G1 X46.537 Y40.974 E0.08691
G1 X47.307 Y40.799 E0.10176
G1 X48.031 Y40.707 E0.11549
G1 X48.094 Y40.702 E0.11668
G1 X48.883 Y40.68 E0.13153
G1 X49.671 Y40.737 E0.14639
G1 X49.967 Y40.789 E0.15204
G1 X50.89 Y40.684 E0.16952
G1 X50.939 Y40.682 E0.17044
G1 X51.729 Y40.69 E0.1853
G1 X52.874 Y40.845 E0.20703
G1 X53.143 Y40.902 E0.21221
G1 X53.906 Y41.105 E0.22706
G1 X54.873 Y41.487 E0.24662
G1 X54.913 Y41.506 E0.24745
G1 X55.608 Y41.881 E0.2623
G1 X56.48 Y42.494 E0.28235
G1 X56.766 Y42.726 E0.28928
G1 X57.353 Y43.254 E0.30413
G1 X57.717 Y43.642 E0.31414
G1 X58.21 Y44.259 E0.329
G1 X58.715 Y45.061 E0.34682
G1 X58.897 Y45.393 E0.35395
G1 X59.321 Y46.3 E0.37278
G1 X59.58 Y47.072 E0.3881
G1 X59.68 Y47.473 E0.39587
G1 X59.798 Y48.004 E0.4061
G1 X59.957 Y49.048 E0.42597
G1 X59.984 Y49.913 E0.44225
G1 X59.971 Y50.438 E0.45212
G1 X59.889 Y51.388 E0.47006
G1 X59.885 Y51.415 E0.47057
G1 X59.67 Y52.411 E0.48974
G1 X59.526 Y52.916 E0.49962
G1 X59.271 Y53.663 E0.51447
G1 X59.002 Y54.265 E0.52687
G1 X58.986 Y54.297 E0.52754
G1 X58.435 Y55.23 E0.54793
G1 X58.219 Y55.544 E0.55509
G1 X57.739 Y56.171 E0.56995
G1 X57.214 Y56.731 E0.58439
G1 X57.184 Y56.76 E0.58517
G1 X56.589 Y57.28 E0.60004
G1 X55.873 Y57.781 E0.61647
G1 X55.594 Y57.954 E0.62265
G1 X54.903 Y58.336 E0.6375
G1 X53.951 Y58.725 E0.65685
G1 X53.903 Y58.741 E0.6578
G1 X53.142 Y58.952 E0.67265
G1 X52.363 Y59.086 E0.68752
G1 X51.739 Y59.135 E0.6993
G1 X51.43 Y59.147 E0.70511
G1 X50.64 Y59.138 E0.71997
G1 X49.978 Y59.063 E0.73251
G1 X49.671 Y59.104 E0.73833
G1 X48.883 Y59.163 E0.7532
G1 X48.094 Y59.142 E0.76804
G1 X47.565 Y59.083 E0.77806
G1 X46.789 Y58.934 E0.79292
G1 X45.71 Y58.584 E0.81426
G1 X45.395 Y58.456 E0.82065
G1 X44.679 Y58.122 E0.83551
G1 X43.782 Y57.566 E0.85537
G1 X43.743 Y57.538 E0.85627
G1 X43.126 Y57.046 E0.87111
G1 X42.323 Y56.223 E0.89274
G1 X42.069 Y55.921 E0.90017
G1 X41.592 Y55.291 E0.91503
G1 X41.25 Y54.742 E0.9272
G1 X40.893 Y54.037 E0.94206
G1 X40.691 Y53.536 E0.95222
G1 X40.53 Y53.093 E0.96109
G1 X40.308 Y52.375 E0.97523
G1 X40.147 Y51.602 E0.99008
G1 X40.094 Y51.185 E0.99799
G1 X40.044 Y50.687 E1.0074
G1 X40.005 Y49.885 E1.0225
G1 X40.074 Y48.852 E1.04198
G1 X40.146 Y48.313 E1.05221
G1 X40.276 Y47.595 E1.06593
G1 X40.49 Y46.835 E1.08079
G1 X40.69 Y46.304 E1.09146
G1 X40.863 Y45.892 E1.09986
G1 X41.205 Y45.18 E1.11472
G1 X41.55 Y44.608 E1.12729
G1 X42.015 Y43.971 E1.14212
G1 X42.373 Y43.56 E1.15238
G1 X42.612 Y43.304 E1.15896
G0 F3600 X42.904 Y43.577
G1 F1800 X43.457 Y43.043 E1.17342
G1 X43.877 Y42.704 E1.18358
G1 X44.514 Y42.272 E1.19805
G1 X45.192 Y41.908 E1.21253
G1 X45.935 Y41.598 E1.22767
G1 X46.664 Y41.354 E1.24213
G1 X47.415 Y41.186 E1.25661
G1 X48.063 Y41.106 E1.26889
G1 X48.126 Y41.101 E1.27008
G1 X48.894 Y41.08 E1.28453
G1 X49.661 Y41.139 E1.299
G1 X49.951 Y41.191 E1.30455
G1 X50.906 Y41.084 E1.32262
G1 X50.955 Y41.082 E1.32354
G1 X51.724 Y41.091 E1.33801
G1 X52.791 Y41.237 E1.35827
G1 X53.06 Y41.294 E1.36344
G1 X53.803 Y41.492 E1.3779
G1 X54.701 Y41.849 E1.39608
G1 X54.741 Y41.868 E1.39692
G1 X55.418 Y42.233 E1.41138
G1 X56.228 Y42.805 E1.43004
G1 X56.514 Y43.037 E1.43696
G1 X57.085 Y43.552 E1.45143
G1 X57.418 Y43.907 E1.46058
G1 X57.897 Y44.509 E1.47505
G1 X58.364 Y45.253 E1.49158
G1 X58.546 Y45.585 E1.4987
G1 X58.948 Y46.445 E1.51656
G1 X58.957 Y46.468 E1.51702
G1 X59.29 Y47.56 E1.5385
G1 X59.408 Y48.091 E1.54873
G1 X59.558 Y49.081 E1.56756
G1 X59.584 Y49.903 E1.58303
G1 X59.571 Y50.428 E1.59291
G1 X59.493 Y51.329 E1.60992
G1 X59.489 Y51.356 E1.61044
G1 X59.285 Y52.301 E1.62862
G1 X59.141 Y52.806 E1.6385
G1 X58.892 Y53.534 E1.65297
G1 X58.628 Y54.118 E1.66503
G1 X58.106 Y55.003 E1.68436
G1 X57.89 Y55.317 E1.69153
G1 X57.422 Y55.927 E1.70599
G1 X56.936 Y56.444 E1.71934
G1 X56.906 Y56.473 E1.72012
G1 X56.326 Y56.978 E1.73459
G1 X55.663 Y57.441 E1.7498
G1 X55.384 Y57.614 E1.75597
G1 X54.71 Y57.985 E1.77045
G1 X53.824 Y58.345 E1.78843
G1 X53.776 Y58.361 E1.78939
G1 X53.035 Y58.566 E1.80385
G1 X52.276 Y58.693 E1.81832
G1 X51.723 Y58.735 E1.82876
G1 X51.414 Y58.747 E1.83457
G1 X50.645 Y58.737 E1.84904
G1 X49.972 Y58.658 E1.86179
G1 X49.621 Y58.707 E1.86845
G1 X48.853 Y58.763 E1.88294
G1 X48.085 Y58.74 E1.89739
G1 X47.62 Y58.687 E1.90619
G1 X46.865 Y58.54 E1.92066
G1 X45.86 Y58.214 E1.94054
G1 X45.545 Y58.086 E1.94693
G1 X44.849 Y57.759 E1.9614
G1 X44.015 Y57.241 E1.97987
G1 X43.976 Y57.213 E1.98077
G1 X43.376 Y56.733 E1.99522
G1 X42.629 Y55.965 E2.01538
G1 X42.375 Y55.663 E2.0228
G1 X41.911 Y55.05 E2.03726
G1 X41.597 Y54.543 E2.04848
G1 X41.251 Y53.857 E2.06293
G1 X40.906 Y52.957 E2.08106
G1 X40.695 Y52.274 E2.09451
G1 X40.492 Y51.145 E2.11609
G1 X40.442 Y50.647 E2.1255
G1 X40.405 Y49.885 E2.13985
G1 X40.47 Y48.905 E2.15833
G1 X40.542 Y48.366 E2.16856
G1 X40.666 Y47.684 E2.18159
G1 X40.875 Y46.944 E2.19606
G1 X41.059 Y46.459 E2.20582
G1 X41.232 Y46.047 E2.21422
G1 X41.566 Y45.354 E2.22869
G1 X41.884 Y44.828 E2.24025
G1 X42.339 Y44.207 E2.25474
G1 X42.904 Y43.577 E2.27065
G0 F3600 X43.196 Y43.85
G1 F1800 X43.735 Y43.331 E2.28473
G1 X44.119 Y43.022 E2.294
G1 X44.739 Y42.603 E2.30808
G1 X45.399 Y42.252 E2.32214
G1 X46.082 Y41.97 E2.33604
G1 X46.791 Y41.734 E2.35009
G1 X47.522 Y41.574 E2.36417
G1 X48.094 Y41.505 E2.37501
G1 X48.157 Y41.5 E2.3762
G1 X48.905 Y41.481 E2.39027
G1 X49.651 Y41.541 E2.40435
G1 X49.961 Y41.59 E2.41025
G1 X50.923 Y41.484 E2.42846
G1 X50.972 Y41.482 E2.42938
G1 X51.72 Y41.491 E2.44345
G1 X52.708 Y41.628 E2.46221
G1 X52.977 Y41.685 E2.46739
G1 X53.7 Y41.879 E2.48147
G1 X54.529 Y42.21 E2.49826
G1 X54.569 Y42.229 E2.49909
G1 X55.227 Y42.586 E2.51317
G1 X55.976 Y43.116 E2.53043
G1 X56.262 Y43.348 E2.53736
G1 X56.817 Y43.849 E2.55142
G1 X57.118 Y44.172 E2.55973
G1 X57.583 Y44.758 E2.5738
G1 X58.013 Y45.445 E2.58905
G1 X58.195 Y45.777 E2.59617
G1 X58.576 Y46.591 E2.61308
G1 X58.585 Y46.614 E2.61354
G1 X58.899 Y47.646 E2.63383
G1 X59.017 Y48.177 E2.64406
G1 X59.16 Y49.115 E2.66191
G1 X59.184 Y49.893 E2.67655
G1 X59.171 Y50.418 E2.68643
G1 X59.097 Y51.271 E2.70254
G1 X59.093 Y51.298 E2.70305
G1 X58.901 Y52.192 E2.72025
G1 X58.757 Y52.697 E2.73013
G1 X58.513 Y53.404 E2.7442
G1 X58.27 Y53.939 E2.75525
G1 X57.776 Y54.776 E2.77353
G1 X57.56 Y55.09 E2.7807
G1 X57.104 Y55.683 E2.79477
G1 X56.658 Y56.156 E2.807
G1 X56.628 Y56.185 E2.80779
G1 X56.063 Y56.675 E2.82185
G1 X55.452 Y57.101 E2.83587
G1 X55.173 Y57.274 E2.84204
G1 X54.517 Y57.634 E2.85612
G1 X53.698 Y57.966 E2.87274
G1 X53.65 Y57.982 E2.87369
G1 X52.928 Y58.18 E2.88777
G1 X52.19 Y58.3 E2.90184
G1 X51.399 Y58.348 E2.91675
G1 X50.651 Y58.337 E2.93082
G1 X50.018 Y58.243 E2.94285
G1 X49.571 Y58.31 E2.95136
G1 X48.824 Y58.364 E2.96545
G1 X47.725 Y58.297 E2.98616
G1 X47.675 Y58.29 E2.98711
G1 X46.941 Y58.147 E3.00117
G1 X46.011 Y57.843 E3.01958
G1 X45.696 Y57.715 E3.02597
G1 X45.019 Y57.397 E3.04004
G1 X44.249 Y56.916 E3.05712
G1 X44.21 Y56.888 E3.05802
G1 X43.626 Y56.42 E3.0721
G1 X42.935 Y55.708 E3.09077
G1 X42.681 Y55.406 E3.09819
G1 X42.231 Y54.808 E3.11227
G1 X41.944 Y54.345 E3.12251
G1 X41.608 Y53.677 E3.13658
G1 X41.282 Y52.82 E3.15383
G1 X41.082 Y52.173 E3.16656
G1 X40.89 Y51.105 E3.18698
G1 X40.84 Y50.607 E3.19639
G1 X40.805 Y49.885 E3.20999
G1 X40.867 Y48.958 E3.22746
G1 X40.939 Y48.419 E3.23769
G1 X41.056 Y47.773 E3.25004
G1 X41.261 Y47.053 E3.26412
G1 X41.601 Y46.202 E3.28136
G1 X41.927 Y45.529 E3.29543
G1 X42.219 Y45.047 E3.30603
G1 X42.662 Y44.444 E3.3201
G1 X43.196 Y43.85 E3.33513
G0 F3600 X43.489 Y44.123
G1 F1800 X44.013 Y43.62 E3.34879
G1 X44.361 Y43.341 E3.35718
G1 X44.963 Y42.935 E3.37084
G1 X45.926 Y42.462 E3.39102
G1 X46.228 Y42.343 E3.39713
G1 X46.918 Y42.114 E3.4108
G1 X47.628 Y41.962 E3.42446
G1 X48.126 Y41.904 E3.43389
G1 X48.189 Y41.899 E3.43508
G1 X48.915 Y41.881 E3.44874
G1 X49.639 Y41.944 E3.46241
G1 X49.957 Y42.002 E3.46849
G1 X50.053 Y41.98 E3.47035
G1 X50.939 Y41.883 E3.48711
G1 X50.988 Y41.881 E3.48803
G1 X51.714 Y41.892 E3.50169
G1 X52.625 Y42.019 E3.51899
G1 X52.894 Y42.076 E3.52417
G1 X53.595 Y42.266 E3.53783
G1 X54.358 Y42.571 E3.55329
G1 X54.398 Y42.59 E3.55412
G1 X55.036 Y42.938 E3.56779
G1 X55.724 Y43.426 E3.58366
G1 X56.01 Y43.658 E3.59058
G1 X56.795 Y44.411 E3.61104
G1 X56.818 Y44.437 E3.6117
G1 X57.269 Y45.007 E3.62537
G1 X57.662 Y45.637 E3.63934
G1 X57.844 Y45.969 E3.64646
G1 X58.203 Y46.737 E3.66241
G1 X58.212 Y46.76 E3.66287
G1 X58.509 Y47.733 E3.68201
G1 X58.627 Y48.264 E3.69224
G1 X58.761 Y49.148 E3.70906
G1 X58.784 Y49.883 E3.72289
G1 X58.771 Y50.408 E3.73277
G1 X58.702 Y51.212 E3.74795
G1 X58.698 Y51.239 E3.74846
G1 X58.516 Y52.082 E3.76468
G1 X58.372 Y52.587 E3.77456
G1 X58.135 Y53.273 E3.78821
G1 X57.912 Y53.761 E3.79831
G1 X57.447 Y54.55 E3.81553
G1 X57.231 Y54.864 E3.8227
G1 X56.787 Y55.438 E3.83635
G1 X56.38 Y55.868 E3.84749
G1 X56.35 Y55.897 E3.84828
G1 X55.801 Y56.373 E3.86194
G1 X55.241 Y56.761 E3.87476
G1 X54.962 Y56.934 E3.88093
G1 X54.325 Y57.282 E3.89459
G1 X53.571 Y57.586 E3.90988
G1 X53.523 Y57.602 E3.91083
G1 X52.822 Y57.794 E3.9245
G1 X52.105 Y57.907 E3.93816
G1 X51.383 Y57.948 E3.95176
G1 X50.657 Y57.936 E3.96542
G1 X50.009 Y57.839 E3.97774
G1 X49.521 Y57.913 E3.98703
G1 X48.796 Y57.964 E4.0007
G1 X47.781 Y57.901 E4.01983
G1 X47.731 Y57.894 E4.02078
G1 X47.018 Y57.754 E4.03445
G1 X46.161 Y57.472 E4.05142
G1 X45.846 Y57.344 E4.05781
G1 X45.19 Y57.034 E4.07146
G1 X44.482 Y56.591 E4.08717
G1 X44.443 Y56.563 E4.08808
G1 X43.877 Y56.108 E4.10174
G1 X43.241 Y55.45 E4.11895
G1 X42.987 Y55.148 E4.12637
G1 X42.551 Y54.567 E4.14004
G1 X42.292 Y54.147 E4.14932
G1 X41.966 Y53.497 E4.163
G1 X41.658 Y52.683 E4.17937
G1 X41.469 Y52.072 E4.1914
G1 X41.288 Y51.065 E4.21064
G1 X41.238 Y50.567 E4.22006
G1 X41.205 Y49.885 E4.2329
G1 X41.263 Y49.011 E4.24938
G1 X41.335 Y48.472 E4.25961
G1 X41.446 Y47.861 E4.27129
G1 X41.646 Y47.163 E4.28495
G1 X41.97 Y46.357 E4.30129
G1 X42.287 Y45.704 E4.31494
G1 X42.553 Y45.266 E4.32458
G1 X42.984 Y44.681 E4.33825
G1 X43.489 Y44.123 E4.35241
G0 F3600 X43.781 Y44.396
G1 F1800 X44.29 Y43.91 E4.36565
G1 X44.602 Y43.66 E4.37317
G1 X45.186 Y43.267 E4.38641
G1 X46.073 Y42.834 E4.40497
G1 X46.375 Y42.715 E4.41108
G1 X47.044 Y42.494 E4.42433
G1 X47.733 Y42.351 E4.43757
G1 X48.22 Y42.297 E4.44679
G1 X48.924 Y42.282 E4.46003
G1 X49.625 Y42.346 E4.47327
G1 X49.969 Y42.411 E4.47986
G1 X50.144 Y42.37 E4.48324
G1 X50.955 Y42.283 E4.49858
G1 X51.004 Y42.281 E4.4995
G1 X51.708 Y42.292 E4.51275
G1 X52.542 Y42.411 E4.5286
G1 X52.811 Y42.468 E4.53377
G1 X53.491 Y42.652 E4.54702
G1 X54.186 Y42.933 E4.56112
G1 X54.226 Y42.952 E4.56195
G1 X54.844 Y43.289 E4.57519
G1 X55.472 Y43.737 E4.58971
G1 X55.758 Y43.969 E4.59663
G1 X56.496 Y44.676 E4.61586
G1 X56.519 Y44.702 E4.61651
G1 X56.955 Y45.255 E4.62976
G1 X57.312 Y45.83 E4.64249
G1 X57.494 Y46.162 E4.64961
G1 X57.831 Y46.883 E4.66458
G1 X57.84 Y46.906 E4.66505
G1 X58.118 Y47.82 E4.68302
G1 X58.236 Y48.351 E4.69325
G1 X58.363 Y49.181 E4.70904
G1 X58.384 Y49.873 E4.72207
G1 X58.371 Y50.398 E4.73194
G1 X58.306 Y51.154 E4.74622
G1 X58.302 Y51.181 E4.74673
G1 X58.131 Y51.972 E4.76195
G1 X57.987 Y52.477 E4.77183
G1 X57.756 Y53.142 E4.78507
G1 X57.554 Y53.582 E4.79418
G1 X57.117 Y54.323 E4.81036
G1 X56.901 Y54.637 E4.81753
G1 X56.47 Y55.193 E4.83076
G1 X56.102 Y55.581 E4.84082
G1 X56.072 Y55.61 E4.84161
G1 X55.539 Y56.069 E4.85484
G1 X55.03 Y56.421 E4.86648
G1 X54.751 Y56.594 E4.87266
G1 X54.133 Y56.931 E4.8859
G1 X53.445 Y57.207 E4.89984
G1 X53.397 Y57.223 E4.90079
G1 X52.717 Y57.407 E4.91404
G1 X51.677 Y57.536 E4.93376
G1 X51.368 Y57.548 E4.93957
G1 X50.664 Y57.536 E4.95282
G1 X50 Y57.435 E4.96545
G1 X49.471 Y57.516 E4.97552
G1 X48.768 Y57.565 E4.98878
G1 X47.836 Y57.505 E5.00634
G1 X47.786 Y57.498 E5.00729
G1 X47.096 Y57.361 E5.02053
G1 X46.312 Y57.102 E5.03606
G1 X45.997 Y56.974 E5.04245
G1 X45.361 Y56.672 E5.0557
G1 X44.715 Y56.266 E5.07005
G1 X44.676 Y56.238 E5.07095
G1 X44.128 Y55.796 E5.0842
G1 X43.547 Y55.193 E5.09995
G1 X43.293 Y54.891 E5.10737
G1 X42.871 Y54.327 E5.12062
G1 X42.639 Y53.948 E5.12898
G1 X42.325 Y53.318 E5.14222
G1 X42.034 Y52.547 E5.15772
G1 X41.856 Y51.971 E5.16906
G1 X41.686 Y51.025 E5.18714
G1 X41.636 Y50.527 E5.19656
G1 X41.605 Y49.885 E5.20865
G1 X41.66 Y49.064 E5.22412
G1 X41.732 Y48.525 E5.23435
G1 X41.836 Y47.95 E5.24534
G1 X42.031 Y47.273 E5.2586
G1 X42.339 Y46.512 E5.27404
G1 X42.647 Y45.879 E5.28728
G1 X42.888 Y45.485 E5.29597
G1 X43.307 Y44.919 E5.30922
G1 X43.781 Y44.396 E5.32249
G0 F3600 X44.073 Y44.669
G1 F1800 X44.811 Y44.004 E5.34118
G1 X44.844 Y43.979 E5.34196
G1 X45.41 Y43.6 E5.35477
G1 X46.22 Y43.206 E5.37172
G1 X46.522 Y43.087 E5.37782
G1 X47.169 Y42.875 E5.39063
G1 X47.836 Y42.74 E5.40343
G1 X48.252 Y42.696 E5.4113
G1 X48.933 Y42.682 E5.42411
G1 X49.611 Y42.748 E5.43693
G1 X49.979 Y42.819 E5.44398
G1 X50.235 Y42.76 E5.44892
G1 X50.971 Y42.683 E5.46284
G1 X51.02 Y42.681 E5.46376
G1 X51.701 Y42.693 E5.47657
G1 X52.459 Y42.802 E5.49098
G1 X52.728 Y42.859 E5.49615
G1 X53.385 Y43.039 E5.50896
G1 X54.015 Y43.294 E5.52175
G1 X54.055 Y43.313 E5.52258
G1 X54.651 Y43.641 E5.53538
G1 X55.22 Y44.048 E5.54854
G1 X55.506 Y44.28 E5.55546
G1 X56.196 Y44.941 E5.57344
G1 X56.219 Y44.967 E5.57409
G1 X56.64 Y45.503 E5.58691
G1 X56.961 Y46.022 E5.59839
G1 X57.143 Y46.354 E5.60551
G1 X57.458 Y47.028 E5.61951
G1 X57.467 Y47.051 E5.61997
G1 X57.728 Y47.907 E5.63681
G1 X57.846 Y48.438 E5.64704
G1 X57.964 Y49.214 E5.6618
G1 X57.984 Y49.864 E5.67404
G1 X57.971 Y50.389 E5.68391
G1 X57.91 Y51.095 E5.69724
G1 X57.906 Y51.122 E5.69776
G1 X57.747 Y51.862 E5.71199
G1 X57.603 Y52.367 E5.72187
G1 X57.378 Y53.01 E5.73469
G1 X57.197 Y53.403 E5.74283
G1 X56.788 Y54.096 E5.75796
G1 X56.572 Y54.41 E5.76513
G1 X56.153 Y54.948 E5.77796
G1 X55.794 Y55.322 E5.78771
G1 X55.278 Y55.766 E5.80052
G1 X54.82 Y56.081 E5.81097
G1 X54.541 Y56.254 E5.81715
G1 X53.942 Y56.579 E5.82997
G1 X53.318 Y56.827 E5.8426
G1 X53.27 Y56.843 E5.84355
G1 X52.613 Y57.02 E5.85635
G1 X51.661 Y57.137 E5.87439
G1 X51.352 Y57.149 E5.88021
G1 X50.671 Y57.135 E5.89302
G1 X49.997 Y57.031 E5.90585
G1 X49.421 Y57.12 E5.91681
G1 X48.741 Y57.165 E5.92963
G1 X47.892 Y57.109 E5.94564
G1 X47.842 Y57.102 E5.94658
G1 X47.174 Y56.968 E5.9594
G1 X46.463 Y56.731 E5.9735
G1 X46.148 Y56.603 E5.97989
G1 X45.533 Y56.31 E5.99271
G1 X44.948 Y55.941 E6.00572
G1 X44.909 Y55.913 E6.00662
G1 X44.381 Y55.485 E6.01941
G1 X43.853 Y54.935 E6.03375
G1 X43.599 Y54.633 E6.04117
G1 X43.192 Y54.087 E6.05398
G1 X42.986 Y53.75 E6.06141
G1 X42.571 Y52.853 E6.08
G1 X42.41 Y52.41 E6.08887
G1 X42.243 Y51.87 E6.0995
G1 X42.084 Y50.985 E6.11642
G1 X42.034 Y50.487 E6.12583
G1 X42.005 Y49.885 E6.13717
G1 X42.056 Y49.117 E6.15165
G1 X42.128 Y48.578 E6.16187
G1 X42.226 Y48.039 E6.17218
G1 X42.534 Y47.078 E6.19116
G1 X42.707 Y46.666 E6.19957
G1 X43.007 Y46.055 E6.21237
G1 X43.223 Y45.704 E6.22012
G1 X43.834 Y44.925 E6.23875
G1 X44.073 Y44.669 E6.24534
G0 F3600 X44.366 Y44.942
G1 F1800 X45.052 Y44.323 E6.26272
G1 X45.085 Y44.298 E6.26349
G1 X45.632 Y43.934 E6.27585
G1 X46.366 Y43.578 E6.2912
G1 X46.668 Y43.459 E6.29731
G1 X47.293 Y43.256 E6.30967
G1 X48.221 Y43.1 E6.32737
G1 X48.284 Y43.095 E6.32856
G1 X48.941 Y43.083 E6.34092
G1 X49.915 Y43.214 E6.3594
G1 X50.325 Y43.151 E6.36721
G1 X50.988 Y43.082 E6.37974
G1 X51.037 Y43.08 E6.38067
G1 X51.694 Y43.094 E6.39303
G1 X52.376 Y43.193 E6.40599
G1 X52.645 Y43.25 E6.41116
G1 X53.279 Y43.425 E6.42354
G1 X53.843 Y43.655 E6.43499
G1 X53.883 Y43.674 E6.43583
G1 X54.458 Y43.992 E6.44819
G1 X54.968 Y44.358 E6.45999
G1 X55.254 Y44.59 E6.46692
G1 X55.897 Y45.206 E6.48367
G1 X55.92 Y45.232 E6.48432
G1 X56.324 Y45.75 E6.49668
